X:1
T:Partition sans titre
C:Compositeur / Arrangeur
L:1/8
M:4/4
I:linebreak $
K:C
V:1 treble nm="Violon" snm="Vln."
V:1
 AB |"Am" c2 cB cBBA |"Dm" aAfA"Am" ecAB | c2 cB cBBA |"Dm" aAfA"Am" e2 ab |"Am" c'eac'"G" begb | %6
"Am" a^gaf edcB | ceae"G" dfed |1"Am" c2 B2 A2 :|2"Am" c2 B2 A2 A2 |:[K:A]"A" cAAA cAAA | %11
"D" dAcA"E" B2 EB | dBBB dBBB |"E" eBdB"A" c2 EA |"A" cAAA cAAA |"D" dAcA"E" B2 ef | gbeg bged |1 %17
"Am" =ceBe A2 A2 :|2"Am" =ceBe A2 |] %19
